X: 398
T: Oh! The Shamrock
M:C
L:1/8
B:O'Neill's 398
N:"Moderate."
Z:Transcribed by Chris Falt, cfalt@trytel.com
K:G
d|B>GGG G>GGG|AGFG A>Bcd|BGGG GGGG|AGFG A>B c||
c|B>ddd dddd|edcB A>Bcc|ccc>c cccc|dcBA G>A Bz|
G3G FF2F|E>EEE D2D2|cccc BBBA|BGcA F2G2||


